src/images/share/tumblr.svg

<?xml version="1.0" encoding="utf-8"?>
<!-- Generator: Adobe Illustrator 23.0.0, SVG Export Plug-In . SVG Version: 6.00 Build 0)  -->
<svg version="1.1" id="Layer_1" xmlns="http://www.w3.org/2000/svg" xmlns:xlink="http://www.w3.org/1999/xlink" x="0px" y="0px"
	 viewBox="0 0 100 100" style="enable-background:new 0 0 100 100;" xml:space="preserve">
<style type="text/css">
	.st0{fill:#2C4762;}
	.st1{fill:#FFFFFF;}
</style>
<g>
	<path class="st0" d="M65,59.9c0,2.8-2.3,5.1-5.1,5.1H40.1c-2.8,0-5.1-2.3-5.1-5.1V40.1c0-2.8,2.3-5.1,5.1-5.1h19.7
		c2.8,0,5.1,2.3,5.1,5.1V59.9z"/>
	<g>
		<path class="st1" d="M51.1,44.2v-4.5h-2.9c-0.1,0.2-0.1,0.4-0.1,0.6c0,0.1-0.1,0.2-0.1,0.3c-0.3,1.7-1.2,2.8-2.6,3.5
			c-0.4,0.2-0.8,0.2-1.3,0.2v3.6h2.1c0,5.1,0,7.7,0,7.9v0.3c0.3,2.2,1.4,3.6,3.5,4.1c0.8,0.2,1.7,0.3,2.6,0.3c1.2,0,2.3-0.2,3.4-0.6
			v-4.3c-0.7,0.2-1.3,0.4-1.8,0.5c-1,0.3-1.9,0.1-2.6-0.6c-0.1-0.1-0.2-0.2-0.2-0.4c-0.1-0.5-0.2-1.1-0.2-1.6v-5.7h4.6v-3.6H51.1z
			 M51.1,44.2"/>
	</g>
</g>
</svg>

<?xml version="1.0" encoding="UTF-8" standalone="no"?>
<!-- Generator: Adobe Illustrator 23.0.0, SVG Export Plug-In . SVG Version: 6.00 Build 0)  -->

<svg
   xmlns:dc="http://purl.org/dc/elements/1.1/"
   xmlns:cc="http://creativecommons.org/ns#"
   xmlns:rdf="http://www.w3.org/1999/02/22-rdf-syntax-ns#"
   xmlns:svg="http://www.w3.org/2000/svg"
   xmlns="http://www.w3.org/2000/svg"
   xmlns:sodipodi="http://sodipodi.sourceforge.net/DTD/sodipodi-0.dtd"
   xmlns:inkscape="http://www.inkscape.org/namespaces/inkscape"
   version="1.1"
   id="Layer_1"
   x="0px"
   y="0px"
   viewBox="0 0 30 30"
   xml:space="preserve"
   sodipodi:docname="tumblr.svg"
   width="30"
   height="30"
   inkscape:version="0.92.3 (2405546, 2018-03-11)"><metadata
   id="metadata17"><rdf:RDF><cc:Work
       rdf:about=""><dc:format>image/svg+xml</dc:format><dc:type
         rdf:resource="http://purl.org/dc/dcmitype/StillImage" /><dc:title></dc:title></cc:Work></rdf:RDF></metadata><defs
   id="defs15" /><sodipodi:namedview
   pagecolor="#ffffff"
   bordercolor="#666666"
   borderopacity="1"
   objecttolerance="10"
   gridtolerance="10"
   guidetolerance="10"
   inkscape:pageopacity="0"
   inkscape:pageshadow="2"
   inkscape:window-width="737"
   inkscape:window-height="480"
   id="namedview13"
   showgrid="false"
   fit-margin-top="0"
   fit-margin-left="0"
   fit-margin-right="0"
   fit-margin-bottom="0"
   inkscape:zoom="2.36"
   inkscape:cx="15"
   inkscape:cy="15"
   inkscape:window-x="67"
   inkscape:window-y="27"
   inkscape:window-maximized="0"
   inkscape:current-layer="Layer_1" />
<style
   type="text/css"
   id="style2">
	.st0{fill:#2C4762;}
	.st1{fill:#FFFFFF;}
</style>
<g
   id="g10"
   transform="translate(-35,-35)">
	<path
   class="st0"
   d="M 65,59.9 C 65,62.7 62.7,65 59.9,65 H 40.1 C 37.3,65 35,62.7 35,59.9 V 40.1 C 35,37.3 37.3,35 40.1,35 h 19.7 c 2.8,0 5.1,2.3 5.1,5.1 v 19.8 z"
   id="path4"
   inkscape:connector-curvature="0"
   style="fill:#2c4762" />
	<g
   id="g8">
		<path
   class="st1"
   d="m 51.1,44.2 v -4.5 h -2.9 c -0.1,0.2 -0.1,0.4 -0.1,0.6 0,0.1 -0.1,0.2 -0.1,0.3 -0.3,1.7 -1.2,2.8 -2.6,3.5 -0.4,0.2 -0.8,0.2 -1.3,0.2 v 3.6 h 2.1 c 0,5.1 0,7.7 0,7.9 v 0.3 c 0.3,2.2 1.4,3.6 3.5,4.1 0.8,0.2 1.7,0.3 2.6,0.3 1.2,0 2.3,-0.2 3.4,-0.6 V 55.6 C 55,55.8 54.4,56 53.9,56.1 52.9,56.4 52,56.2 51.3,55.5 51.2,55.4 51.1,55.3 51.1,55.1 51,54.6 50.9,54 50.9,53.5 v -5.7 h 4.6 v -3.6 z m 0,0"
   id="path6"
   inkscape:connector-curvature="0"
   style="fill:#ffffff" />
	</g>
</g>
</svg>
